X:761
T:Out on the ocean
T:The Portroe jig
R:Jig
O:Ireland
P:APB Martin Hayes
D:Hayes Cahill Live in Seattle
B:O'Neill's 795
S:Hayes Cahill Live in Seattle
Z:Transcription, chords:Mike Long
M:6/8
L:1/8
K:G
"G"JB3 BAG|BdB ABA|"C"GED ~G2A|"C"BAB "D"AGE|\
"G"D2B BAG|BdB ABA|
"C"GED "(D)"~G2A|[1 "G"BGG G2A:|[2 "G"BGG GBd\
|:"Em"ege edB|ege edB|"G"Jd2d dBd|
"C"gfe "D"dBA|\
"G"G2A ~B2d|ege dBA|"C"GED "(D)"G2A|[1 "G"BGG GBd:|[2 "G"BGG G2A|]
